icon_installer/data/icons/scalable/actions/show-cameras-symbolic.svg

<?xml version="1.0" encoding="UTF-8"?>
<svg height="16px" viewBox="0 0 16 16" width="16px" xmlns="http://www.w3.org/2000/svg">
    <g fill="#222222">
        <path d="m 3.734375 5.476562 l -2.371094 -2.699218 h -0.363281 v 5.445312 h 0.34375 z m 1.265625 -3.476562 c -0.554688 0 -1 0.445312 -1 1 v 4.777344 c 0 -0.550782 0.449219 -1 1 -1 h 0.363281 c 0.289063 0 0.5625 0.125 0.75 0.339844 l 0.886719 1.007812 v -0.125 c 0 -1.089844 0.910156 -2 2 -2 h 2 v -3 c 0 -0.554688 -0.445312 -1 -1 -1 z m 0 0" fill-opacity="0.34902"/>
        <path d="m 7.734375 10.476562 l -2.371094 -2.699218 h -0.363281 v 5.445312 h 0.34375 z m 6.265625 -3.476562 h -5 c -0.554688 0 -1 0.445312 -1 1 v 5 c 0 0.554688 0.445312 1 1 1 h 5 c 0.554688 0 1 -0.445312 1 -1 v -5 c 0 -0.554688 -0.445312 -1 -1 -1 z m 0 0"/>
    </g>
</svg>

<svg xmlns="http://www.w3.org/2000/svg" width="16" height="16"><g fill="#222"><path fill-opacity=".349" d="m3.734 5.477-2.37-2.7H1v5.446h.344zM5 2c-.555 0-1 .445-1 1v4.777c0-.55.45-1 1-1h.363c.29 0 .563.125.75.34L7 8.125V8c0-1.09.91-2 2-2h2V3c0-.555-.445-1-1-1zm0 0"/><path d="m7.734 10.477-2.37-2.7H5v5.446h.344zM14 7H9c-.555 0-1 .445-1 1v5c0 .555.445 1 1 1h5c.555 0 1-.445 1-1V8c0-.555-.445-1-1-1zm0 0"/></g></svg>
